X:227
T: WERS LIEBEN BETRACHT
N: E0814B
O: Europa, Mitteleuropa, Deutschland, Hessen, Dill - Kreis
R: Kilt - Lied
M: 3/4
L: 1/16
K: A
E4 | A4E4F2G2 | A4z4
c4 | c4B4e2d2 | c8z4 |
c3BB3Bc2B2 | c4e4c4 |
c3BB3Bc2B2 | c4e4c4 |
e2f2e4c2d2 | c4z4

